X: 27
T: Memories of "Red" Alexander Beaton March
T: March, D
C: Rodney MacDonald
L: 1/16
M: C
K: D
|: F2G2| A6F2 A2F2A2d2| f4f2e2 d8| G4B2G2 F4A2F2| G4E4 E2D2F2G2| A6F2 A2F2A2d2| f4f2e2 d8| G4B2G2 F4A2F2| E8 D4:| 
|: f2g2| a6f2 d4a4| A4a4 a8| G4B2G2 F4A2F2| [1 G4E4 E4f2g2| a6f2 d4a4| A4a4 a8| G4B2G2 F4A2F2| E8 D4:| 
[2 G4E4 E2D2F2G2| A6F2 A2F2A2d2| f4f2e2 d8| G4B2G2 F4A2F2| E8 D4|]
D: Rodney MacDonald, Dancer's Delight, RMD1, 1995
